src/ClientApp/src/assets/linkedin_grey.svg

<svg width="45" height="45" viewBox="0 0 45 45" fill="none" xmlns="http://www.w3.org/2000/svg">
<rect width="45" height="45" rx="5" fill="#ACACAC"/>
<path d="M36.9208 27.9425V38.6363H30.7208V28.6591C30.7208 26.154 29.8256 24.4432 27.5808 24.4432C25.8677 24.4432 24.85 25.595 24.4006 26.7102C24.2373 27.1088 24.1953 27.6623 24.1953 28.2213V38.6359H17.9948C17.9948 38.6359 18.078 21.7378 17.9948 19.9886H24.1957V22.6311C24.1832 22.6519 24.1657 22.6723 24.1546 22.6922H24.1957V22.6311C25.0197 21.3633 26.4891 19.5508 29.7836 19.5508C33.8627 19.5508 36.9208 22.2159 36.9208 27.9425ZM11.5085 11C9.3876 11 8 12.3922 8 14.2214C8 16.0117 9.34737 17.4442 11.4271 17.4442H11.4674C13.6299 17.4442 14.9745 16.0117 14.9745 14.2214C14.9334 12.3922 13.6299 11 11.5085 11ZM8.36851 38.6363H14.5667V19.9886H8.36851V38.6363Z" fill="#D9D9D9"/>
</svg>

<svg width="45" height="45" fill="none" xmlns="http://www.w3.org/2000/svg"><rect width="45" height="45" rx="5" fill="#ACACAC"/><path d="M36.92 27.942v10.694h-6.2V28.66c0-2.505-.894-4.216-3.14-4.216-1.712 0-2.73 1.152-3.18 2.267-.163.399-.205.952-.205 1.511v10.415h-6.2s.083-16.898 0-18.647h6.2v2.642c-.012.02-.03.041-.04.061h.04v-.06c.825-1.269 2.294-3.081 5.589-3.081 4.079 0 7.137 2.665 7.137 8.392zM11.509 11C9.388 11 8 12.392 8 14.221c0 1.79 1.347 3.223 3.427 3.223h.04c2.163 0 3.508-1.432 3.508-3.223C14.933 12.392 13.63 11 11.509 11zm-3.14 27.636h6.199V19.99H8.369v18.647z" fill="#D9D9D9"/></svg>
